public/avatar/shoe/81.svg

<svg xmlns:xlink="http://www.w3.org/1999/xlink" height="38.3" width="36.05" xmlns="http://www.w3.org/2000/svg"><use height="21.4" transform="translate(7.35 8.2)" width="24.95" xlink:href="#a"/><defs><g id="a"><path d="M17.35.9Q14.9.25 14.4 2.1q-1 3.1-3.65 5.65l-4.25 3-1.4-.25L3 12.25h1.35L2.5 14l-.1.9-1.4.8-.25 1.2q-.1 1.3.65 2.05.85.9 4.85 1.45 3.85.5 5.4.05 3.3-1.4 6.6-2.85 5.15-2.5 5.65-3.2.95-1.45-.9-3.95v-.1q-.1-1.1-1.25-2.35-1.1-1.3-1.35-2.55l-.7-3.55q-1.1-.7-2.35-1Z" fill="none" stroke="#300000" stroke-linecap="round" stroke-linejoin="round" stroke-width="1.5"/><path d="M5.55 3q.95.1 1.7 2.05.7 1.95.2 2.7-.5.7-5.65 3.2-3.3 1.45-6.6 2.85-1.55.45-5.4-.05-4-.55-4.85-1.45-.75-.75-.65-2.05l.25-1.2q.65-1 10.4-3.6Q4.3 2.85 5.55 3" fill="#6d0000" fill-rule="evenodd" transform="translate(16.45 6.65)"/><path d="M-15.25 9.05Q-14.3 7.8-3.6 6 7.05 4.1 7.15 5.3q.25 3-13 6.55-5.1 1.4-7.75-.55l-1.65-2.25" fill="#0a50d2" fill-rule="evenodd" transform="translate(16.45 6.65)"/><path d="M4.15 4.25 4.8 6.3l1.9-1.5q.2 1.9-2.15 2.4-1.35.3-6.5 2.65Q-6.5 12.25-8.6 12q-1.35-.15-1.45-1.2l.1-1.05q-1.75 1.35-2.8 1.25-.75-.05-1.1-1.4-.4-1.25-.1-2.25l7.25-5.4-.3.65q3-.1 5.15-1.4-.45 1.35-.7 4 1.1-.75 3.8-1.85-.2.75-.1 2.35.75-.7 3-1.45" fill="#c54900" fill-rule="evenodd" transform="translate(16.45 6.65)"/><path d="M-10.25 8.2q1.15.1.5 1.25-1 1.85-3.45 1.5-.6-.15-.05-1.1.95.45 3-1.65M4 7.35q-5.8 2-6.95 3.15-.9.85-3.85 1.35-3 .45-3.15-.4-.15-1.2.5-1.1l11.4-3.3 2.05.3" fill="#952d00" fill-rule="evenodd" transform="translate(16.45 6.65)"/><path d="m-11.35 3.85 3.1.65q3.5.85 5.65 2.1-1.25.35-2.4 1.25-4.5-2.55-8.45-2.25l2.1-1.75" fill="#0a50d2" fill-rule="evenodd" transform="translate(16.45 6.65)"/><path d="M-2.6 6.6Q-.35 7.85-.05 9.45q-1.05.75-1.95.5l-.7-.45q-.85-.75-2.3-1.65 1.15-.9 2.4-1.25" fill="#1f0082" fill-rule="evenodd" transform="translate(16.45 6.65)"/><path d="M-10.3 11.3q.25-2 2.55-3.55 1.2-.8 2.3-1.2" fill="none" stroke="#0a50d2" stroke-linecap="round" stroke-linejoin="round" transform="translate(16.45 6.65)"/><path d="M-2.05-4.55q.25-.9 1.05-1.2 2.45.35 4.3 1.1l.65 3.45Q4.2.05 5.3 1.35 6.45 2.6 6.55 3.7l.15 1.1-1.9 1.5-.65-2.05Q1.9 5 1.15 5.7q-.1-1.6.1-2.35-2.7 1.1-3.8 1.85.25-2.65.7-4Q-4 2.5-7 2.6l.3-.65 1-.85q2.65-2.55 3.65-5.65" fill="#952d00" fill-rule="evenodd" transform="translate(16.45 6.65)"/><path d="M-7.8 8.75q.1 1.45-1 2.5-1.15 1-1.55-.2-.35-1.05 1.1-1.8l1.45-.5" fill="#c54900" fill-rule="evenodd" transform="translate(16.45 6.65)"/></g></defs></svg>

<?xml version="1.0" encoding="UTF-8" standalone="no"?>
<svg xmlns:xlink="http://www.w3.org/1999/xlink" height="38.3px" width="36.05px" xmlns="http://www.w3.org/2000/svg">
  <g transform="matrix(1.0, 0.0, 0.0, 1.0, 23.8, 14.85)">
    <use height="21.4" transform="matrix(1.0, 0.0, 0.0, 1.0, -16.45, -6.65)" width="24.95" xlink:href="#shape0"/>
  </g>
  <defs>
    <g id="shape0" transform="matrix(1.0, 0.0, 0.0, 1.0, 16.45, 6.65)">
      <path d="M0.9 -5.75 Q-1.55 -6.4 -2.05 -4.55 -3.05 -1.45 -5.7 1.1 L-9.95 4.1 -11.35 3.85 -13.45 5.6 -12.1 5.6 -13.95 7.35 -14.05 8.25 -15.45 9.05 -15.7 10.25 Q-15.8 11.55 -15.05 12.3 -14.2 13.2 -10.2 13.75 -6.35 14.25 -4.8 13.8 -1.5 12.4 1.8 10.95 6.95 8.45 7.45 7.75 8.4 6.3 6.55 3.8 L6.55 3.7 Q6.45 2.6 5.3 1.35 4.2 0.05 3.95 -1.2 L3.25 -4.75 Q2.15 -5.45 0.9 -5.75 Z" fill="none" stroke="#300000" stroke-linecap="round" stroke-linejoin="round" stroke-width="1.5"/>
      <path d="M5.55 3.0 Q6.5 3.1 7.25 5.05 7.95 7.0 7.45 7.75 6.95 8.45 1.8 10.95 -1.5 12.4 -4.8 13.8 -6.35 14.25 -10.2 13.75 -14.2 13.2 -15.05 12.3 -15.8 11.55 -15.7 10.25 L-15.45 9.05 Q-14.8 8.05 -5.05 5.45 4.3 2.85 5.55 3.0" fill="#6d0000" fill-rule="evenodd" stroke="none"/>
      <path d="M-15.25 9.05 Q-14.3 7.8 -3.6 6.0 7.05 4.1 7.15 5.3 7.4 8.3 -5.85 11.85 -10.95 13.25 -13.6 11.3 L-15.25 9.05" fill="#0a50d2" fill-rule="evenodd" stroke="none"/>
      <path d="M4.15 4.25 L4.8 6.3 6.7 4.8 Q6.9 6.7 4.55 7.2 3.2 7.5 -1.95 9.85 -6.5 12.25 -8.6 12.0 -9.95 11.85 -10.05 10.8 L-9.95 9.75 Q-11.7 11.1 -12.75 11.0 -13.5 10.95 -13.85 9.6 -14.25 8.35 -13.95 7.35 L-6.7 1.95 -7.0 2.6 Q-4.0 2.5 -1.85 1.2 -2.3 2.55 -2.55 5.2 -1.45 4.45 1.25 3.35 1.05 4.1 1.15 5.7 1.9 5.0 4.15 4.25" fill="#c54900" fill-rule="evenodd" stroke="none"/>
      <path d="M-10.25 8.2 Q-9.1 8.3 -9.75 9.45 -10.75 11.3 -13.2 10.95 -13.8 10.8 -13.25 9.85 -12.3 10.3 -10.25 8.2" fill="#952d00" fill-rule="evenodd" stroke="none"/>
      <path d="M4.0 7.35 Q-1.8 9.35 -2.95 10.5 -3.85 11.35 -6.8 11.85 -9.8 12.3 -9.95 11.45 -10.1 10.25 -9.45 10.35 L1.95 7.05 4.0 7.35" fill="#952d00" fill-rule="evenodd" stroke="none"/>
      <path d="M-11.35 3.85 L-8.25 4.5 Q-4.75 5.35 -2.6 6.6 -3.85 6.95 -5.0 7.85 -9.5 5.3 -13.45 5.6 L-11.35 3.85" fill="#0a50d2" fill-rule="evenodd" stroke="none"/>
      <path d="M-2.6 6.6 Q-0.35 7.85 -0.05 9.45 -1.1 10.2 -2.0 9.95 L-2.7 9.5 Q-3.55 8.75 -5.0 7.85 -3.85 6.95 -2.6 6.6" fill="#1f0082" fill-rule="evenodd" stroke="none"/>
      <path d="M-10.3 11.3 Q-10.05 9.3 -7.75 7.75 -6.55 6.95 -5.45 6.55" fill="none" stroke="#0a50d2" stroke-linecap="round" stroke-linejoin="round" stroke-width="1.0"/>
      <path d="M-2.05 -4.55 Q-1.8 -5.45 -1.0 -5.75 1.45 -5.4 3.3 -4.65 L3.95 -1.2 Q4.2 0.05 5.3 1.35 6.45 2.6 6.55 3.7 L6.7 4.8 4.8 6.3 4.15 4.25 Q1.9 5.0 1.15 5.7 1.05 4.1 1.25 3.35 -1.45 4.45 -2.55 5.2 -2.3 2.55 -1.85 1.2 -4.0 2.5 -7.0 2.6 L-6.7 1.95 -5.7 1.1 Q-3.05 -1.45 -2.05 -4.55" fill="#952d00" fill-rule="evenodd" stroke="none"/>
      <path d="M-7.8 8.75 Q-7.7 10.2 -8.8 11.25 -9.95 12.25 -10.35 11.05 -10.7 10.0 -9.25 9.25 L-7.8 8.75" fill="#c54900" fill-rule="evenodd" stroke="none"/>
    </g>
  </defs>
</svg>
